WorldWind/resources/milstd2525/tacgrp/g-ophi--------x.svg

<?xml version="1.0" encoding="UTF-8" standalone="no"?>
<!-- SVG content generated using Symbology Configuration Management System (SCMS) -->

<!-- Systematic Software Engineering Ltd. - www.systematic.co.uk - do not remove  -->

<svg
    xmlns:dc="http://purl.org/dc/elements/1.1/"
    xmlns:cc="http://creativecommons.org/ns#"
    xmlns:rdf="http://www.w3.org/1999/02/22-rdf-syntax-ns#"
    xmlns:svg="http://www.w3.org/2000/svg"
    xmlns="http://www.w3.org/2000/svg"
    xmlns:sodipodi="http://sodipodi.sourceforge.net/DTD/sodipodi-0.dtd"
    xmlns:inkscape="http://www.inkscape.org/namespaces/inkscape"
    id="G*OPHI----****X"
    width="370.07999"
    height="280"
    viewBox="0 0 370.07999 280"
    version="1.1"
    inkscape:version="0.48.2 r9819"
    sodipodi:docname="g-ophi--------x.svg">
    <metadata
        id="metadata14">
        <rdf:RDF>
            <cc:Work
                rdf:about="">
                <dc:format>image/svg+xml</dc:format>
                <dc:type
                    rdf:resource="http://purl.org/dc/dcmitype/StillImage"/>
            </cc:Work>
        </rdf:RDF>
    </metadata>
    <defs
        id="defs12"/>
    <sodipodi:namedview
        pagecolor="#ffffff"
        bordercolor="#666666"
        borderopacity="1"
        objecttolerance="10"
        gridtolerance="10"
        guidetolerance="10"
        inkscape:pageopacity="0"
        inkscape:pageshadow="2"
        inkscape:window-width="640"
        inkscape:window-height="480"
        id="namedview10"
        showgrid="false"
        inkscape:zoom="0.59"
        inkscape:cx="185"
        inkscape:cy="140"
        inkscape:window-x="0"
        inkscape:window-y="0"
        inkscape:window-maximized="0"
        inkscape:current-layer="g6"/>
    <g
        id="g3"
        transform="translate(-15,-60)">
        <svg
            viewBox="0 0 400 400"
            id="_0.G-OPHI--------X"
            width="400"
            height="400"
            version="1.1"
            inkscape:version="0.48.2 r9819">
            <g
                transform="matrix(8,0,0,8,15,60)"
                id="g6">
                <path
                    d="m 4.559,17.6 -4.559,0 0,-1.32 3.959,0 z m 32.64,6.361 -5.881,-6.422 -8.699,14.762 -8.279,-14.762 -6.24,6 L 3.959,16.291 22.559,0 l 19.08,16.295 -5.76,9.525 z m 0,-0.002 -1.26,1.801 L 31.378,20.24 22.619,35 14.34,20.24 l -5.1,5.1 -1.14,-1.801 6.24,-6 8.279,14.762 8.699,-14.762 z m 4.442,-7.68 4.619,0 0,1.32 -5.34,0 z"
                    id="path8"
                    style="fill:#ffffff"
                    inkscape:connector-curvature="0"/>
            </g>
        </svg>
    </g>
</svg>

<?xml version="1.0" encoding="UTF-8" standalone="no"?>
<!-- SVG content generated using Symbology Configuration Management System (SCMS) -->

<!-- Systematic Software Engineering Ltd. - www.systematic.co.uk - do not remove  -->

<svg
   xmlns:dc="http://purl.org/dc/elements/1.1/"
   xmlns:cc="http://creativecommons.org/ns#"
   xmlns:rdf="http://www.w3.org/1999/02/22-rdf-syntax-ns#"
   xmlns:svg="http://www.w3.org/2000/svg"
   xmlns="http://www.w3.org/2000/svg"
   xmlns:sodipodi="http://sodipodi.sourceforge.net/DTD/sodipodi-0.dtd"
   xmlns:inkscape="http://www.inkscape.org/namespaces/inkscape"
   id="G*OPHI----****X"
   width="400px"
   height="400px"
   viewBox="0 0 400 400"
   version="1.1"
   inkscape:version="0.48.2 r9819"
   sodipodi:docname="g-ophi--------x.svg">
  <metadata
     id="metadata14">
    <rdf:RDF>
      <cc:Work
         rdf:about="">
        <dc:format>image/svg+xml</dc:format>
        <dc:type
           rdf:resource="http://purl.org/dc/dcmitype/StillImage" />
      </cc:Work>
    </rdf:RDF>
  </metadata>
  <defs
     id="defs12" />
  <sodipodi:namedview
     pagecolor="#ffffff"
     bordercolor="#666666"
     borderopacity="1"
     objecttolerance="10"
     gridtolerance="10"
     guidetolerance="10"
     inkscape:pageopacity="0"
     inkscape:pageshadow="2"
     inkscape:window-width="640"
     inkscape:window-height="480"
     id="namedview10"
     showgrid="false"
     inkscape:zoom="0.59"
     inkscape:cx="200"
     inkscape:cy="200"
     inkscape:window-x="0"
     inkscape:window-y="0"
     inkscape:window-maximized="0"
     inkscape:current-layer="g6" />
  <g
     id="g3">
    <svg
       viewBox="0 0 400 400"
       id="_0.G-OPHI--------X"
       width="400px"
       height="400px"
       version="1.1">
      <g
         transform="translate(15 60) scale(8 8)"
         id="g6">
        <path
           d="M4.559 17.6 L0 17.6 L0 16.28 L3.959 16.28 zM37.199 23.961 L31.318 17.539 L22.619      32.301 L14.34 17.539 L8.1 23.539 L3.959 16.291 L22.559 0 L41.639 16.295 L35.879      25.82 zM37.199 23.959 L35.939 25.76 L31.378 20.24 L22.619 35 L14.34 20.24      L9.24 25.34 L8.1 23.539 L14.34 17.539 L22.619 32.301 L31.318 17.539 zM41.641      16.279 L46.26 16.279 L46.26 17.599 L40.92 17.599 z"
           id="path8"
           style="fill:#ffffff" />
      </g>
    </svg>
  </g>
</svg>
